src/topics/icons/google-2014.svg

<svg height="178" preserveAspectRatio="xMidYMid" viewBox="0 0 512 178" width="512" xmlns="http://www.w3.org/2000/svg"><path d="m119.501928 123.474092-24.8045497 5.725068c-10.0647631 1.561605-19.0794816 2.946979-28.615551 2.946979-47.876159 0-66.0818273-35.2095375-66.0818273-62.7921775 0-33.6454848 25.8423562-64.85799915 70.073955-64.85799915 9.3671809 0 18.3818995 1.38292587 26.5301477 3.6372174 13.0117413 3.64456035 19.0819293 8.15314355 22.8978253 10.75500225l-14.399562 13.7044281-6.0677406 1.3829258 4.3347996-6.9440011c-5.8939567-5.7177253-16.6538542-16.2964963-37.1162617-16.2964963-27.403961 0-48.047495 20.822213-48.047495 51.1707046 0 32.6003356 23.5905123 63.2988419 61.397013 63.2988419 11.11236 0 16.8251901-2.244501 22.0289067-4.334799v-27.9204168l-26.1850273 1.3853735 13.8708688-7.4580091h36.7735895l-4.506135 4.3323519c-1.223829 1.0378063-1.390269 1.3951642-1.737836 2.7731947-.178679 1.5640525-.34512 6.5964348-.34512 8.3293748z" fill="#166dee"/><path d="m289.846575 112.20753c4.151225-5.524361 5.189032-12.4194087 5.189032-19.1553593 0-15.180365-7.247511-44.1606167-28.642476-44.1606167-5.693248 0-11.386497 2.2469487-15.523037 5.8719278-6.728606 6.033473-7.942645 13.6261031-7.942645 21.0473973 0 17.074851 8.454206 45.1910799 29.332715 45.1910799 6.726159 0 13.628551-3.274964 17.586411-8.794429zm-21.558957 13.97367c-27.428438 0-42.094795-21.39007-42.094795-40.7192117 0-22.5992116 18.460224-41.9185635 44.68931-41.9185635 25.352825 0 41.228324 19.8382551 41.228324 40.7167642 0 20.349815-15.694372 41.921011-43.822839 41.921011z" fill="#f7bf34"/><path d="m196.343653 112.20753c4.143882-5.524361 5.179241-12.4194087 5.179241-19.1553593 0-15.180365-7.247511-44.1606167-28.640027-44.1606167-5.690802 0-11.386498 2.2469487-15.527932 5.8719278-6.728608 6.033473-7.932855 13.6261031-7.932855 21.0473973 0 17.074851 8.44931 45.1910799 29.330266 45.1910799 6.728608 0 13.630999-3.274964 17.591307-8.794429zm-21.5663 13.97367c-27.430886 0-42.097242-21.39007-42.097242-40.7192117 0-22.5992116 18.465119-41.9185635 44.689309-41.9185635 25.355273 0 41.230773 19.8382551 41.230773 40.7167642 0 20.349815-15.699268 41.921011-43.82284 41.921011z" fill="#d3402b"/><path d="m369.811509 96.114189c3.972547-3.9823371 4.317666-9.5042499 4.317666-12.6176688 0-12.4414375-7.428637-31.7950566-21.767008-31.7950566-4.496345 0-9.330466 2.2469486-12.103661 5.7054871-2.93474 3.6323221-3.796315 8.2902121-3.796315 12.7890047 0 11.5725194 6.740846 30.7548026 21.605463 30.7548026 4.315218 0 8.973109-2.0682697 11.743855-4.836569zm-5.0128 32.832862c-1.37803-.17623-2.242053-.17623-3.965203-.17623-1.55671 0-10.894519.347567-18.15182 2.768299-3.798763 1.382926-14.857274 5.52436-14.857274 17.79691 0 12.270101 11.92743 21.086559 30.414578 21.086559 16.582872 0 25.404226-7.962226 25.404226-18.660932 0-8.828696-5.703039-13.481691-18.844507-22.814606zm12.274997-76.7266842c3.972546 3.2847549 12.262759 10.1920412 12.262759 23.3286131 0 12.7841093-7.257301 18.8420589-14.514603 24.5377551-2.246948 2.242054-4.836569 4.667681-4.836569 8.473787 0 3.793867 2.589621 5.867032 4.489002 7.428637l6.229285 4.829226c7.599974 6.395726 14.50726 12.274997 14.50726 24.202427 0 16.2402-15.726192 32.654183-45.443189 32.654183-25.059106 0-37.150528-11.920086-37.150528-24.713986 0-6.22439 3.103628-15.023715 13.310355-21.081665 10.703601-6.564614 25.225547-7.423741 32.999304-7.952436-2.42318-3.108523-5.186584-6.388383-5.186584-11.743855 0-2.93474.868918-4.667681 1.730492-6.740845-1.906724.173783-3.80121.345119-5.531703.345119-18.313364 0-28.684085-13.6554751-28.684085-27.1249282 0-7.9475403 3.634769-16.768894 11.058511-23.1572771 9.851818-8.1213239 21.598121-9.5042498 30.93593-9.5042498h35.591372l-11.058512 6.2194949z" fill="#166dee"/><path d="m431.898762 118.48332c-5.732412-.52135-6.931764-1.559156-6.931764-8.324479v-98.1730501c.031821-.376939.061192-.7587735.100354-1.118579.692687-6.07018781 2.428076-7.10799413 7.805577-10.236099h-24.806997l-13.011742 6.24641913h13.261403v.078325l-.009791-.05874375v107.07762472c0 3.465881-.687792 3.987232-4.679919 9.186054h30.700954l6.420202-3.811001c-2.949425-.350015-5.898851-.52135-8.848277-.866471" fill="#009a57"/><path d="m486.285686 68.7420474c3.27007-1.2066945 4.990773-2.2371579 4.990773-4.6480994 0-6.8852576-7.749281-14.8156642-17.050375-14.8156642-6.899943 0-19.811331 5.3432339-19.811331 23.9454225 0 2.9298447.342672 6.0310254.521351 9.132206zm10.512685 54.4383256c-5.693249 2.582277-11.55049 3.270069-16.717493 3.270069-5.507227 0-14.12053-.347567-22.912512-6.716369-12.2187-8.61575-17.564382-23.4289669-17.564382-36.3476974 0-26.6965882 21.708265-39.7866547 39.443983-39.7866547 6.199914 0 12.583401 1.5469189 17.750404 4.8243308 8.60596 5.6761152 10.843118 13.0802758 12.047365 17.0430315l-40.471999 16.3699259s-12.382315 4.8840401-12.304566 5.1696493c5.263711 19.3363066 19.217284 30.4829146 34.519496 30.4829146 8.787087 0 15.158336-3.096286 21.015577-6.023683l-9.129758 8.613302c-1.88959 1.032912-3.786524 2.242054-5.676115 3.101181z" fill="#d3402b"/></svg>

<?xml version="1.0" encoding="UTF-8" standalone="no"?>
<svg width="512px" height="178px" viewBox="0 0 512 178" version="1.1" xmlns="http://www.w3.org/2000/svg" xmlns:xlink="http://www.w3.org/1999/xlink" preserveAspectRatio="xMidYMid">
	<g>
		<path d="M119.501928,123.474092 L94.6973783,129.19916 C84.6326152,130.760765 75.6178967,132.146139 66.0818273,132.146139 C18.2056683,132.146139 0,96.9366015 0,69.3539615 C0,35.7084767 25.8423562,4.49596235 70.073955,4.49596235 C79.4411359,4.49596235 88.4558545,5.87888822 96.6041027,8.13317975 C109.615844,11.7777401 115.686032,16.2863233 119.501928,18.888182 L105.102366,32.5926101 L99.0346254,33.9755359 L103.369425,27.0315348 C97.4754683,21.3138095 86.7155708,10.7350385 66.2531633,10.7350385 C38.8492023,10.7350385 18.2056683,31.5572515 18.2056683,61.9057431 C18.2056683,94.5060787 41.7961806,125.204585 79.6026813,125.204585 C90.7150413,125.204585 96.4278714,122.960084 101.631588,120.869786 L101.631588,92.9493692 L75.4465607,94.3347427 L89.3174295,86.8767336 L126.091019,86.8767336 L121.584884,91.2090855 C120.361055,92.2468918 120.194615,92.6042497 119.847048,93.9822802 C119.668369,95.5463327 119.501928,100.578715 119.501928,102.311655 L119.501928,123.474092" fill="#166DEE"></path>
		<path d="M289.846575,112.20753 C293.9978,106.683169 295.035607,99.7881213 295.035607,93.0521707 C295.035607,77.8718057 287.788096,48.891554 266.393131,48.891554 C260.699883,48.891554 255.006634,51.1385027 250.870094,54.7634818 C244.141488,60.7969548 242.927449,68.3895849 242.927449,75.8108791 C242.927449,92.8857301 251.381655,121.001959 272.260164,121.001959 C278.986323,121.001959 285.888715,117.726995 289.846575,112.20753 L289.846575,112.20753 L289.846575,112.20753 Z M268.287618,126.1812 C240.85918,126.1812 226.192823,104.79113 226.192823,85.4619883 C226.192823,62.8627767 244.653047,43.5434248 270.882133,43.5434248 C296.234958,43.5434248 312.110457,63.3816799 312.110457,84.260189 C312.110457,104.610004 296.416085,126.1812 268.287618,126.1812 L268.287618,126.1812 L268.287618,126.1812 Z" fill="#F7BF34"></path>
		<path d="M196.343653,112.20753 C200.487535,106.683169 201.522894,99.7881213 201.522894,93.0521707 C201.522894,77.8718057 194.275383,48.891554 172.882867,48.891554 C167.192065,48.891554 161.496369,51.1385027 157.354935,54.7634818 C150.626327,60.7969548 149.42208,68.3895849 149.42208,75.8108791 C149.42208,92.8857301 157.87139,121.001959 178.752346,121.001959 C185.480954,121.001959 192.383345,117.726995 196.343653,112.20753 L196.343653,112.20753 L196.343653,112.20753 Z M174.777353,126.1812 C147.346467,126.1812 132.680111,104.79113 132.680111,85.4619883 C132.680111,62.8627767 151.14523,43.5434248 177.36942,43.5434248 C202.724693,43.5434248 218.600193,63.3816799 218.600193,84.260189 C218.600193,104.610004 202.900925,126.1812 174.777353,126.1812 L174.777353,126.1812 L174.777353,126.1812 Z" fill="#D3402B"></path>
		<path d="M369.811509,96.114189 C373.784056,92.1318519 374.129175,86.6099391 374.129175,83.4965202 C374.129175,71.0550827 366.700538,51.7014636 352.362167,51.7014636 C347.865822,51.7014636 343.031701,53.9484122 340.258506,57.4069507 C337.323766,61.0392728 336.462191,65.6971628 336.462191,70.1959554 C336.462191,81.7684748 343.203037,100.950758 358.067654,100.950758 C362.382872,100.950758 367.040763,98.8824883 369.811509,96.114189 L369.811509,96.114189 L369.811509,96.114189 Z M364.798709,128.947051 C363.420679,128.770821 362.556656,128.770821 360.833506,128.770821 C359.276796,128.770821 349.938987,129.118388 342.681686,131.53912 C338.882923,132.922046 327.824412,137.06348 327.824412,149.33603 C327.824412,161.606131 339.751842,170.422589 358.23899,170.422589 C374.821862,170.422589 383.643216,162.460363 383.643216,151.761657 C383.643216,142.932961 377.940177,138.279966 364.798709,128.947051 L364.798709,128.947051 L364.798709,128.947051 Z M377.073706,52.2203668 C381.046252,55.5051217 389.336465,62.412408 389.336465,75.5489799 C389.336465,88.3330892 382.079164,94.3910388 374.821862,100.086735 C372.574914,102.328789 369.985293,104.754416 369.985293,108.560522 C369.985293,112.354389 372.574914,114.427554 374.474295,115.989159 L380.70358,120.818385 C388.303554,127.214111 395.21084,133.093382 395.21084,145.020812 C395.21084,161.261012 379.484648,177.674995 349.767651,177.674995 C324.708545,177.674995 312.617123,165.754909 312.617123,152.961009 C312.617123,146.736619 315.720751,137.937294 325.927478,131.879344 C336.631079,125.31473 351.153025,124.455603 358.926782,123.926908 C356.503602,120.818385 353.740198,117.538525 353.740198,112.183053 C353.740198,109.248313 354.609116,107.515372 355.47069,105.442208 C353.563966,105.615991 351.66948,105.787327 349.938987,105.787327 C331.625623,105.787327 321.254902,92.1318519 321.254902,78.6623988 C321.254902,70.7148585 324.889671,61.8935048 332.313413,55.5051217 C342.165231,47.3837978 353.911534,46.0008719 363.249343,46.0008719 L398.840715,46.0008719 L387.782203,52.2203668 L377.073706,52.2203668 L377.073706,52.2203668 Z" fill="#166DEE"></path>
		<path d="M431.898762,118.48332 C426.16635,117.96197 424.966998,116.924164 424.966998,110.158841 L424.966998,11.9857909 C424.998819,11.6088519 425.02819,11.2270174 425.067352,10.8672119 C425.760039,4.79702409 427.495428,3.75921777 432.872929,0.631112905 L408.065932,0.631112905 L395.05419,6.87753203 L408.315593,6.87753203 L408.315593,6.95585703 L408.305802,6.89711328 L408.305802,113.974738 C408.305802,117.440619 407.61801,117.96197 403.625883,123.160792 L434.326837,123.160792 L440.747039,119.349791 C437.797614,118.999776 434.848188,118.828441 431.898762,118.48332" fill="#009A57"></path>
		<path d="M486.285686,68.7420474 C489.555756,67.5353529 491.276459,66.5048895 491.276459,64.093948 C491.276459,57.2086904 483.527178,49.2782838 474.226084,49.2782838 C467.326141,49.2782838 454.414753,54.6215177 454.414753,73.2237063 C454.414753,76.153551 454.757425,79.2547317 454.936104,82.3559123 L486.285686,68.7420474 L486.285686,68.7420474 Z M496.798371,123.180373 C491.105122,125.76265 485.247881,126.450442 480.080878,126.450442 C474.573651,126.450442 465.960348,126.102875 457.168366,119.734073 C444.949666,111.118323 439.603984,96.3051061 439.603984,83.3863756 C439.603984,56.6897874 461.312249,43.5997209 479.047967,43.5997209 C485.247881,43.5997209 491.631368,45.1466398 496.798371,48.4240517 C505.404331,54.1001669 507.641489,61.5043275 508.845736,65.4670832 L468.373737,81.8370091 C468.373737,81.8370091 455.991422,86.7210492 456.069171,87.0066584 C461.332882,106.342965 475.286455,117.489573 490.588667,117.489573 C499.375754,117.489573 505.747003,114.393287 511.604244,111.46589 L502.474486,120.079192 C500.584896,121.112104 498.687962,122.321246 496.798371,123.180373 Z" fill="#D3402B"></path>
	</g>
</svg>
